app/assets/v2/images/avatar/HairStyle/womanhair4-3596EC.svg

<?xml version="1.0" standalone="no"?><!-- Generator: Gravit.io --><svg xmlns="http://www.w3.org/2000/svg" xmlns:xlink="http://www.w3.org/1999/xlink" style="isolation:isolate" viewBox="0 0 899.5 1499" width="899.5" height="1499"><defs><clipPath id="_clipPath_8i5rs12MEvMZ0yji7iC3KVYJ5i4uHv2Y"><rect width="899.5" height="1499"/></clipPath></defs><g clip-path="url(#_clipPath_8i5rs12MEvMZ0yji7iC3KVYJ5i4uHv2Y)"><path d=" M 804.3 709.219 C 864 704.319 864 627.319 864 627.319 C 864 601.819 857.3 582.619 850 569.219 C 834.4 540.719 830 507.019 841.1 476.519 C 841.2 476.319 841.3 476.119 841.3 475.919 C 850 452.519 848.9 426.219 835.4 405.319 C 825.3 389.719 811.1 375.619 797 364.119 C 770 341.819 747.4 314.419 729.8 284.219 C 704.2 240.319 666.8 216.519 666.8 216.519 C 529.1 117.919 436.7 200.119 436.7 200.119 C 436.7 200.119 344.2 117.919 206.6 216.519 C 206.6 216.519 169.2 240.319 143.5 284.219 C 125.8 314.519 103.3 341.919 76.3 364.119 C 62.3 375.619 48 389.719 37.9 405.319 C 24.4 426.219 23.3 452.619 32 475.919 C 32.1 476.119 32.1 476.319 32.2 476.519 C 43.4 507.019 38.9 540.719 23.3 569.219 C 16 582.619 9.3 601.819 9.3 627.319 C 9.3 627.319 9.3 704.419 69 709.219 C 71.8 709.419 73.8 712.219 72.6 714.819 C 72.5 715.019 72.4 715.219 72.3 715.419 C 48.6 768.619 59.7 830.619 99.5 873.219 C 132.9 909.119 161.8 959.419 124.4 1005.319 C 124.4 1005.319 247.7 1023.819 272.3 939.619 L 282.8 939.619 C 274.8 933.319 267 926.819 259.6 919.819 C 181.8 845.919 173.7 730.519 173.7 627.319 C 173.7 584.619 193.5 546.419 227.4 520.519 L 430.6 352.919 C 434.1 350.019 439.2 350.019 442.8 352.919 L 645.9 520.419 C 679.8 546.319 699.6 584.519 699.6 627.219 C 699.6 730.319 707.9 845.819 630.1 919.719 C 622.1 927.319 612.2 934.419 601.6 941.119 C 627.5 1023.319 748.9 1005.219 748.9 1005.219 C 711.5 959.319 740.4 909.019 773.8 873.119 C 813.5 830.519 824.7 768.519 800.9 715.219 C 800.8 715.019 800.7 714.819 800.6 714.619 C 799.5 712.119 801.4 709.419 804.3 709.219 Z " fill="rgb(53,150,236)" vector-effect="non-scaling-stroke" stroke-width="26.9" stroke="rgb(0,0,0)" stroke-linejoin="miter" stroke-linecap="butt" stroke-miterlimit="10"/></g></svg>

<svg xmlns="http://www.w3.org/2000/svg" style="isolation:isolate" width="899.5" height="1499"><defs><clipPath id="a"><path d="M0 0h899.5v1499H0z"/></clipPath></defs><g clip-path="url(#a)"><path d="M804.3 709.219c59.7-4.9 59.7-81.9 59.7-81.9 0-25.5-6.7-44.7-14-58.1-15.6-28.5-20-62.2-8.9-92.7.1-.2.2-.4.2-.6 8.7-23.4 7.6-49.7-5.9-70.6-10.1-15.6-24.3-29.7-38.4-41.2-27-22.3-49.6-49.7-67.2-79.9-25.6-43.9-63-67.7-63-67.7-137.7-98.6-230.1-16.4-230.1-16.4s-92.5-82.2-230.1 16.4c0 0-37.4 23.8-63.1 67.7-17.7 30.3-40.2 57.7-67.2 79.9-14 11.5-28.3 25.6-38.4 41.2-13.5 20.9-14.6 47.3-5.9 70.6.1.2.1.4.2.6 11.2 30.5 6.7 64.2-8.9 92.7-7.3 13.4-14 32.6-14 58.1 0 0 0 77.1 59.7 81.9 2.8.2 4.8 3 3.6 5.6l-.3.6c-23.7 53.2-12.6 115.2 27.2 157.8 33.4 35.9 62.3 86.2 24.9 132.1 0 0 123.3 18.5 147.9-65.7h10.5c-8-6.3-15.8-12.8-23.2-19.8-77.8-73.9-85.9-189.3-85.9-292.5 0-42.7 19.8-80.9 53.7-106.8l203.2-167.6c3.5-2.9 8.6-2.9 12.2 0l203.1 167.5c33.9 25.9 53.7 64.1 53.7 106.8 0 103.1 8.3 218.6-69.5 292.5-8 7.6-17.9 14.7-28.5 21.4 25.9 82.2 147.3 64.1 147.3 64.1-37.4-45.9-8.5-96.2 24.9-132.1 39.7-42.6 50.9-104.6 27.1-157.9l-.3-.6c-1.1-2.5.8-5.2 3.7-5.4z" fill="#3596EC" vector-effect="non-scaling-stroke" stroke-width="26.9" stroke="#000" stroke-miterlimit="10"/></g></svg>
